X: 16
T: Maudabawn Chapel
C: Ed Reavy
Z: TrevorS
S: https://thesession.org/tunes/302#setting50298
R: reel
M: 4/4
L: 1/8
K: Gmaj
|:G3F E2DB,|GABD E2 DB,|G2 B D G2 Bd|gabg efga|
gbag efge|dged B^cde|g2 fa gedB|AcBA GEED:|
|:E2 BE dEBE|Ed^cB AFDF|~E3 F GFGB|AF (3FFF DFAF|
EBBA B3 B|BAGA B^cde|f2 af gfe^c|dBAF GEED:|

